svgs/sharp-solid/file-binary.svg

<svg xmlns="http://www.w3.org/2000/svg" viewBox="0 0 384 512"><!--! Font Awesome Pro 6.6.0 by @fontawesome - https://fontawesome.com License - https://fontawesome.com/license (Commercial License) Copyright 2024 Fonticons, Inc. --><path d="M224 0L0 0 0 512l384 0 0-352-160 0L224 0zm32 0l0 128 128 0L256 0zM80 256l96 0 16 0 0 16 0 128 0 16-16 0-96 0-16 0 0-16 0-128 0-16 16 0zM96 384l64 0 0-96-64 0 0 96zM240 256l32 0 16 0 0 16 0 112 16 0 16 0 0 32-16 0-32 0-32 0-16 0 0-32 16 0 16 0 0-96-16 0-16 0 0-32 16 0z"/></svg>

<svg xmlns="http://www.w3.org/2000/svg" viewBox="0 0 384 512"><!--! Font Awesome Pro 6.4.0 by @fontawesome - https://fontawesome.com License - https://fontawesome.com/license (Commercial License) Copyright 2023 Fonticons, Inc. --><path d="M224 0H0V512H384V160H224V0zm32 0V128H384L256 0zM80 256h96 16v16V400v16H176 80 64V400 272 256H80zM96 384h64V288H96v96zM240 256h32 16v16V384h16 16v32H304 272 240 224V384h16 16V288H240 224V256h16z"/></svg>
